X:1
T:Title
%%score ( 1 2 ) ( 3 4 )
L:1/8
Q:1/4=96
M:6/8
K:C
V:1 treble nm="Grand Piano, Soprano"
V:2 treble 
V:3 bass nm="Choir Pad, Sweet Christmas Time"
V:4 bass 
V:1
 [EG]Ge [Ed] [Fc]2 | [FA] [EG]2 [CE] [EG]2 | [EG][EG]>[DF] [CE] [DF]2 | %3
w: By~William~Lesley~Mason * * * *|||
 [B,G] [CE]2- [CE]2- [CE]/ z/ | [EG]Ge [Ed] [Fc]2 | [FA] [EG]2 [CE] [EG]2 | [Ec] [GB]2 [GB]dc | %7
w: ||||
 [^FA] G2- G2- G/ z/ | G [FA]2 [FA][FA]>^G | [FA] [EB]2 [EB]BA | [EB] [Ec]2 [Ec]dc | %11
w: ||||
 [Fd] [^Ge]2- [Ge]2- [Ge]/ z/ | [FG] [EG]2 [Ec] [FB]2 | [Fd] [Gc]2 [Ge] [FA]2 | [Fd] [Ec]2 [Ec]BA | %15
w: ||||
 [FB] [Ec]2- [Ec]2- [Ec]/ z/ | G [Ee]2- [Ee] [Fc]2 | [FA] [EG]2 [EG][EG][CE] | %18
w: |||
 [EG] [FA]2 [FA] [^Fd]2 | [^Fc] [GB]2- [GB]2- [GB]/ z/ | [FA][EG]>A [EG][FG]>A | %21
w: |||
 [FG]Gc [Ee] [FA]2- | [FA]3 [FA]dc | [FA] [EG]2 [EG] [FA]2 | [Fd] [Ec]2- [Ec] B2- | %25
w: ||||
 [FB] [Ec]2- [Ec]3- | [Ec]3 z3 |] %27
w: ||
V:2
 z E2 z3 | x6 | x6 | x6 | z E2 z3 | x6 | z3 z ^F2 | x6 | x6 | z3 z E2 | z3 z E2 | x6 | x6 | x6 | %14
 z3 z F2 | x6 | x6 | x6 | x6 | x6 | x6 | z E2 z3 | z3 z F2 | x6 | z3 z D2 | x6 | x6 |] %27
V:3
 [C,G,] [C,G,]2 [C,G,] [C,A,]2 | [C,A,] [C,C]2 [C,G,] [C,C]2 | [C,G,] [G,,G,]2 [G,,G,] [G,,G,]2 | %3
 [G,,G,] [C,G,]2- [C,G,]2- [C,G,]/ z/ | [C,G,] [C,G,]2 [C,G,] [C,A,]2 | %5
 [C,A,] [C,C]2 [C,G,] [C,C]2 | [C,G,] [D,G,]2 [D,B,] [D,A,]2 | [D,C] [G,B,]2- [G,B,]2- [G,B,]/ z/ | %8
 [G,B,] [F,C]2 [F,C] [F,C]2 | [F,C] [E,^G,]2 [E,G,] [E,G,]2 | [^G,B,] [A,C]2 [A,C] [F,A,]2 | %11
 [F,A,] [E,B,]2- [E,B,]2- [E,B,]/ z/ | [G,B,] [C,G,]2 [C,G,] [D,G,]2 | [D,G,] [E,C]2 [C,C] [F,C]2 | %14
 [F,A,] G,2 G, [G,,G,]2 | [G,,G,] [C,G,]2- [C,G,]2- [C,G,]/ z/ | z [C,G,]2- [C,G,] [C,A,]2 | %17
 [C,B,] [C,C]2 [C,C]CG, | [C,C] [F,C]2 [F,C] [D,D]2 | [D,D] [G,D]2- [G,D]2- [G,D]/ z/ | %20
 [G,B,] [C,G,]2 [C,G,] [D,G,]2 | [D,G,] [E,C]2 [E,C] [F,C]2- | [F,C]3 [F,C] [F,A,]2 | %23
 [F,C] [C,C]2 [C,C] [F,C]2 | [F,A,] G,2- G,/ z/ [G,,G,]2- | [G,,G,] [C,G,]2- [C,G,]3- | %26
 [C,G,]3 z3 |] %27
V:4
 x6 | x6 | x6 | x6 | x6 | x6 | x6 | x6 | x6 | x6 | x6 | x6 | x6 | x6 | x6 | x6 | x6 | z3 z C,2 | %18
 x6 | x6 | x6 | x6 | x6 | x6 | x6 | x6 | x6 |] %27

